src/main/resources/img/expui/action/Save.svg

<svg width="16" height="16" fill="none" version="1.1" viewBox="0 0 16 16" xmlns="http://www.w3.org/2000/svg">
 <path d="m1.5 1c-0.27613 2.77e-5 -0.49997 0.22387-0.5 0.5l3e-7 12c2.76e-5 0.27613 0.22387 0.49997 0.5 0.5h13c0.27613-2.8e-5 0.49997-0.22387 0.5-0.5v-9.707c-2.5e-5 -0.1326-0.05272-0.25976-0.14648-0.35352l-2.293-2.293c-0.093756-0.093768-0.22092-0.14646-0.35352-0.14648zm0.5 1h3v2.5c2.76e-5 0.27613 0.22387 0.49997 0.5 0.5h5c0.27613-2.76e-5 0.49997-0.22387 0.5-0.5v-2.5h1l2 2v9h-2v-4.5c-2.8e-5 -0.27613-0.22387-0.49997-0.5-0.5h-7c-0.27613 2.8e-5 -0.49997 0.22387-0.5 0.5v4.5h-2zm4 0h4v2h-4zm-1 7h6v4h-6z" color="#000000" fill="#6c707e" stroke-linejoin="round"/>
</svg>

<svg width="16" height="16" fill="none" xmlns="http://www.w3.org/2000/svg"><path d="M1.5 1a.5.5 0 0 0-.5.5v12a.5.5 0 0 0 .5.5h13a.5.5 0 0 0 .5-.5V3.793a.5.5 0 0 0-.146-.354L12.56 1.146A.5.5 0 0 0 12.207 1zM2 2h3v2.5a.5.5 0 0 0 .5.5h5a.5.5 0 0 0 .5-.5V2h1l2 2v9h-2V8.5a.5.5 0 0 0-.5-.5h-7a.5.5 0 0 0-.5.5V13H2zm4 0h4v2H6zM5 9h6v4H5z" color="#000" fill="#6c707e"/></svg>
